X:602
T:Reel 602
M:4/4
K:Amaj
L:1/8
A,2CA, E,A,CA,|G,E,B,E, DE,B,G,|A,2CA, E,A,CA,||CEB,G, A,2F,E,:||2CA,B,G, A,2A,2|A2EA A2EA|GEEA GEEG|A2EA A2BA|GEDB, A,2CE|A2EA A2BA|GEEF GABG|AEEA A2BA|GEDB, A,2z2|
